static/img/code.svg

<svg viewBox="0 0 100 100" xmlns="http://www.w3.org/2000/svg"><g fill="#430632"><path d="m36.08 38.4-16.08 11.34 16.12 11.37a1.06 1.06 0 0 1 .47.89v1.51a1.09 1.09 0 0 1 -.56.95 1.14 1.14 0 0 1 -.53.14 1.05 1.05 0 0 1 -.7-.25l-18.48-13a1.08 1.08 0 0 1 -.47-.89v-1.46a1.15 1.15 0 0 1 .47-.92l18.42-12.92a1.14 1.14 0 0 1 1.26 0 1.09 1.09 0 0 1 .59 1v1.32a1.16 1.16 0 0 1 -.51.92z"/><path d="m60.06 27.8-.06.2-16.78 44.79a1.09 1.09 0 0 1 -1 .68h-1.22a1 1 0 0 1 -.87-.46 1.05 1.05 0 0 1 -.14-.9l16.81-44.9a1.09 1.09 0 0 1 1-.68h1.2a1 1 0 0 1 .86.45 1.07 1.07 0 0 1 .2.82z"/><path d="m84.14 49v1.5a1.08 1.08 0 0 1 -.47.89l-18.54 13a1 1 0 0 1 -.63.2 1.13 1.13 0 0 1 -.45-.09 1.16 1.16 0 0 1 -.65-1v-1.45a1.15 1.15 0 0 1 .51-1l16.09-11.31-16.13-11.37a1.07 1.07 0 0 1 -.47-.9v-1.32a1.19 1.19 0 0 1 1.88-1l18.39 12.94a1.06 1.06 0 0 1 .47.91z"/><path d="m87.46 90.38h-74.92a2.92 2.92 0 0 1 -2.92-2.92v-74.91a2.94 2.94 0 0 1 2.93-2.93h74.91a2.92 2.92 0 0 1 2.92 2.92v74.92a2.92 2.92 0 0 1 -2.92 2.92zm-74.84-3h74.76v-74.76h-74.76z"/></g></svg>

<svg id="Layer_1" data-name="Layer 1" xmlns="http://www.w3.org/2000/svg" viewBox="0 0 100 100"><title>code</title><path d="M36.08,38.4,20,49.74,36.12,61.11a1.06,1.06,0,0,1,.47.89v1.51a1.09,1.09,0,0,1-.56.95,1.14,1.14,0,0,1-.53.14,1.05,1.05,0,0,1-.7-.25l-18.48-13a1.08,1.08,0,0,1-.47-.89V49a1.15,1.15,0,0,1,.47-.92L34.74,35.16a1.14,1.14,0,0,1,1.26,0,1.09,1.09,0,0,1,.59,1v1.32A1.16,1.16,0,0,1,36.08,38.4Z" fill="#430632"/><path d="M60.06,27.8,60,28,43.22,72.79a1.09,1.09,0,0,1-1,.68H41a1,1,0,0,1-.87-.46,1.05,1.05,0,0,1-.14-.9l16.81-44.9a1.09,1.09,0,0,1,1-.68H59a1,1,0,0,1,.86.45A1.07,1.07,0,0,1,60.06,27.8Z" fill="#430632"/><path d="M84.14,49V50.5a1.08,1.08,0,0,1-.47.89l-18.54,13a1,1,0,0,1-.63.2,1.13,1.13,0,0,1-.45-.09,1.16,1.16,0,0,1-.65-1V62.05a1.15,1.15,0,0,1,.51-1L80,49.74,63.87,38.37a1.07,1.07,0,0,1-.47-.9V36.15a1.19,1.19,0,0,1,1.88-1L83.67,48.09A1.06,1.06,0,0,1,84.14,49Z" fill="#430632"/><path d="M87.46,90.38H12.54a2.92,2.92,0,0,1-2.92-2.92V12.55a2.94,2.94,0,0,1,2.93-2.93H87.46a2.92,2.92,0,0,1,2.92,2.92V87.46A2.92,2.92,0,0,1,87.46,90.38Zm-74.84-3H87.38V12.62H12.62Z" fill="#430632"/></svg>
